X:21
T:Another Jig Will Do
C:Irish
M:9/8
S:Colin Hume's website,  colinhume.com  - chords can also be printed below the stave.
Q:3/8=120
K:D
P:A
|: "D"ABA A2G F2G | ABA AGF "C"G3 | "D"ABA A2G F2G | A2d "A"d2c "D"d3 :|
P:B
[| "D"A2g f2d "A"e2c | "A"A2B "C"=c2d c3 | "D"A2g f2d "A"e2c | "D"A2d "A"d2c "D"d3 |
"D"A2g f2d "A"e2c | "A"A2B "C"=c2d c3 | "D"d2A A2G "A"F2G | "D"A2d "A"d2c "D"d3 |]

